svgs/edevlet.svg

<svg xmlns="http://www.w3.org/2000/svg" viewBox="0 0 192 192"><path d="M39.882 159.167c-12.006-2.879-19.88-9.503-22.562-18.979-1.775-6.269-1.762-10.642.052-18.109 6.865-28.263 36.307-60.095 71.379-77.174 25.17-12.256 55.687-16.61 71.866-10.251 14.373 5.648 19.183 19.707 12.263 35.842-9.723 22.672-40.062 46.849-73.461 58.541-19.699 6.896-33.902 6.985-41.287.256-3.054-2.782-3.611-3.956-4.023-8.47-.605-6.64 1.334-12.201 6.95-19.927 11.287-15.525 34.102-29.103 51.643-30.733l6.167-.573-5.218 1.507c-2.87.829-9.151 3.579-13.958 6.111-23.145 12.194-33.355 33.202-19.775 40.693 5.389 2.973 18.923 2.905 29.323-.146 30.513-8.952 57.571-37.337 57.803-60.636.156-15.704-11.985-23.768-33.376-22.167-27.497 2.057-57.868 18.289-81.69 43.66C38.027 93.47 28.49 109.578 25.411 123.48c-2.458 11.096 1.165 21.79 9.2 27.161 14.192 9.486 45.352 7.374 72.377-4.906 4.708-2.14 8.561-3.687 8.561-3.438 0 .862-15.703 8.084-24.195 11.127-4.697 1.683-11.955 3.814-16.13 4.736-10.466 2.309-27.847 2.805-35.342 1.007Zm97.042-72.458c-1.212-4.026-2.905-4.431-9.181-2.197-3.235 1.151-6.048 1.918-6.251 1.704-.204-.214 1.977-2.118 4.846-4.231l5.216-3.841-1.913-3.263-1.913-3.262h6.117c4.448 0 6.734-.495 8.379-1.816 1.245-.999 3.918-3.121 5.94-4.715l3.677-2.898-2.484 5.167-2.484 5.167 5.923.298 5.923.297-7.116 2.565c-6.782 2.445-7.241 2.809-9.785 7.75-2.86 5.555-3.982 6.306-4.894 3.275Z"/></svg>

<svg
    xmlns="http://www.w3.org/2000/svg"
    viewBox="0 0 192 192"
    id="vector">
    <g id="group">
        <path
            id="path_5"
            d="M 39.882 159.167 C 27.876 156.288 20.002 149.664 17.32 140.188 C 15.545 133.919 15.558 129.546 17.372 122.079 C 24.237 93.816 53.679 61.984 88.751 44.905 C 113.921 32.649 144.438 28.295 160.617 34.654 C 174.99 40.302 179.8 54.361 172.88 70.496 C 163.157 93.168 132.818 117.345 99.419 129.037 C 79.72 135.933 65.517 136.022 58.132 129.293 C 55.078 126.511 54.521 125.337 54.109 120.823 C 53.504 114.183 55.443 108.622 61.059 100.896 C 72.346 85.371 95.161 71.793 112.702 70.163 L 118.869 69.59 L 113.651 71.097 C 110.781 71.926 104.5 74.676 99.693 77.208 C 76.548 89.402 66.338 110.41 79.918 117.901 C 85.307 120.874 98.841 120.806 109.241 117.755 C 139.754 108.803 166.812 80.418 167.044 57.119 C 167.2 41.415 155.059 33.351 133.668 34.952 C 106.171 37.009 75.8 53.241 51.978 78.612 C 38.027 93.47 28.49 109.578 25.411 123.48 C 22.953 134.576 26.576 145.27 34.611 150.641 C 48.803 160.127 79.963 158.015 106.988 145.735 C 111.696 143.595 115.549 142.048 115.549 142.297 C 115.549 143.159 99.846 150.381 91.354 153.424 C 86.657 155.107 79.399 157.238 75.224 158.16 C 64.758 160.469 47.377 160.965 39.882 159.167 Z M 136.924 86.709 C 135.712 82.683 134.019 82.278 127.743 84.512 C 124.508 85.663 121.695 86.43 121.492 86.216 C 121.288 86.002 123.469 84.098 126.338 81.985 L 131.554 78.144 L 129.641 74.881 L 127.728 71.619 L 133.845 71.619 C 138.293 71.619 140.579 71.124 142.224 69.803 C 143.469 68.804 146.142 66.682 148.164 65.088 L 151.841 62.19 L 149.357 67.357 L 146.873 72.524 L 152.796 72.822 L 158.719 73.119 L 151.603 75.684 C 144.821 78.129 144.362 78.493 141.818 83.434 C 138.958 88.989 137.836 89.74 136.924 86.709 Z"
            fill="#000000"
            stroke-width="12"/>
    </g>
</svg>
